static/assets/images/products/kubestash/addons/mariadb-stash-addon.svg

<svg width="32" height="32" viewBox="0 0 32 32" fill="none" xmlns="http://www.w3.org/2000/svg">
<g clip-path="url(#clip0)">
<path d="M11.648 21.0561C12.224 18.0481 14.528 16.1921 16.768 15.7121C19.2 15.2001 21.408 15.7121 23.232 17.5041C23.392 17.6641 23.712 17.7921 23.968 17.7921C24.576 17.7921 25.184 17.9201 25.696 18.1441C25.696 18.1121 25.728 18.1121 25.728 18.0801C26.816 15.8081 27.552 13.3761 27.936 10.9121C28.352 9.15208 28.544 8.89608 30.496 7.42408C31.328 6.91208 31.872 6.04808 31.968 5.08808C32.064 3.96808 31.808 3.80808 30.72 4.32008C30.112 4.57608 29.472 4.70408 28.8 4.73608C26.144 4.96008 25.088 5.76008 23.2 8.96008C20.928 12.8321 20.032 13.4721 14.848 15.1681C10.4 16.6081 9.824 16.8641 8.832 17.6321C8.064 18.2401 7.392 18.9441 6.848 19.7121C5.952 20.8961 5.76 21.0561 4.928 21.0561C4.384 21.0241 3.872 20.9601 3.328 20.8641C2.368 20.5441 1.344 20.6081 0.416 20.9921C0.192 21.1521 0 21.3441 0 21.3761C0.544 21.8561 1.12 22.3041 1.728 22.6881C1.856 22.7841 1.856 22.8481 1.632 23.1361C0.992 23.9681 0.8 24.3521 0.8 24.6081C0.8 24.8641 0.832 24.8961 1.376 24.8961C1.792 24.8961 2.176 24.8321 2.592 24.7361C4.064 24.1921 5.504 23.5201 6.848 22.6881C8.768 21.4401 9.76 21.0241 11.648 21.0561Z" fill="#1971BD"/>
<path d="M20.672 19.04C22.24 20.608 23.872 22.208 25.536 23.872C24.768 23.872 24 23.872 23.168 23.872C23.168 25.568 23.168 27.232 23.168 28.896C21.44 28.896 19.808 28.896 18.112 28.896C18.112 27.232 18.112 25.6 18.112 23.904C17.28 23.904 16.512 23.904 15.712 23.904C17.408 22.272 19.04 20.64 20.672 19.04Z" fill="#1971BD"/>
</g>
<defs>
<clipPath id="clip0">
<rect width="32" height="24.928" fill="white" transform="translate(0 4)"/>
</clipPath>
</defs>
</svg>

<svg xmlns="http://www.w3.org/2000/svg" width="32" height="32" fill="none" xmlns:v="https://vecta.io/nano"><g clip-path="url(#A)" fill="#1971bd"><path d="M11.648 21.056c.576-3.008 2.88-4.864 5.12-5.344 2.432-.512 4.64 0 6.464 1.792.16.16.48.288.736.288.608 0 1.216.128 1.728.352 0-.032.032-.032.032-.064 1.088-2.272 1.824-4.704 2.208-7.168.416-1.76.608-2.016 2.56-3.488a3.11 3.11 0 0 0 1.472-2.336c.096-1.12-.16-1.28-1.248-.768-.608.256-1.248.384-1.92.416-2.656.224-3.712 1.024-5.6 4.224-2.272 3.872-3.168 4.512-8.352 6.208-4.448 1.44-5.024 1.696-6.016 2.464-.768.608-1.44 1.312-1.984 2.08-.896 1.184-1.088 1.344-1.92 1.344-.544-.032-1.056-.096-1.6-.192-.96-.32-1.984-.256-2.912.128-.224.16-.416.352-.416.384.544.48 1.12.928 1.728 1.312.128.096.128.16-.096.448-.64.832-.832 1.216-.832 1.472s.032.288.576.288c.416 0 .8-.064 1.216-.16 1.472-.544 2.912-1.216 4.256-2.048 1.92-1.248 2.912-1.664 4.8-1.632zm9.024-2.016l4.864 4.832h-2.368v5.024h-5.056v-4.992h-2.4l4.96-4.864z"/></g><defs><clipPath id="A"><path fill="#fff" transform="translate(0 4)" d="M0 0h32v24.928H0z"/></clipPath></defs></svg>
